src/assets/images/illustrations/search-pink.svg

<svg width="166" height="166" viewBox="0 0 166 166" fill="none" xmlns="http://www.w3.org/2000/svg">
<circle cx="83" cy="83" r="83" fill="white"/>
<rect x="33.6689" y="32.9146" width="67.6934" height="92.2199" rx="3" transform="rotate(-9.73533 33.6689 32.9146)" fill="#EFC5DE"/>
<rect x="47.5946" y="44.461" width="44.1478" height="3.92425" rx="1.96213" transform="rotate(-9.73533 47.5946 44.461)" fill="#DA6CA2"/>
<rect x="50.9126" y="63.7999" width="44.1478" height="3.92425" rx="1.96213" transform="rotate(-9.73533 50.9126 63.7999)" fill="#DA6CA2"/>
<rect x="55.8896" y="92.8079" width="44.1478" height="3.92425" rx="1.96213" transform="rotate(-9.73533 55.8896 92.8079)" fill="#DA6CA2"/>
<rect x="49.2534" y="54.1305" width="44.1478" height="3.92425" rx="1.96213" transform="rotate(-9.73533 49.2534 54.1305)" fill="#DA6CA2"/>
<rect x="54.2305" y="83.1384" width="44.1478" height="3.92425" rx="1.96213" transform="rotate(-9.73533 54.2305 83.1384)" fill="#DA6CA2"/>
<rect x="52.5713" y="73.469" width="44.1478" height="3.92425" rx="1.96213" transform="rotate(-9.73533 52.5713 73.469)" fill="#DA6CA2"/>
<rect x="57.5485" y="102.477" width="44.1478" height="3.92425" rx="1.96213" transform="rotate(-9.73533 57.5485 102.477)" fill="#DA6CA2"/>
<path d="M75.7165 90.5C75.7165 112.868 125.256 131 103.106 131C80.956 131 63 112.868 63 90.5C63 68.1325 80.956 50 103.106 50C110.904 50 114.21 51.2278 110.442 53.4573C103.508 57.5606 80.7869 66.8187 75.7165 90.5Z" fill="white"/>
<path d="M107.803 51.9476C101.849 51.2427 95.8129 51.9444 90.1793 53.9964C84.5457 56.0484 79.4721 59.3934 75.3662 63.7626C71.2604 68.1318 68.2368 73.4033 66.5385 79.1534C64.8402 84.9035 64.5145 90.9718 65.5877 96.8707C66.6609 102.769 69.103 108.334 72.7177 113.118C76.3324 117.901 81.0189 121.77 86.4006 124.413C91.7822 127.056 97.7089 128.4 103.704 128.336C109.7 128.273 115.596 126.803 120.921 124.046L141.646 150.346C142.216 151.125 142.937 151.781 143.766 152.275C144.595 152.769 145.515 153.091 146.471 153.222C147.428 153.353 148.4 153.29 149.332 153.037C150.263 152.784 151.134 152.345 151.892 151.748C152.65 151.151 153.28 150.408 153.745 149.562C154.21 148.716 154.499 147.785 154.596 146.825C154.693 145.865 154.596 144.895 154.31 143.973C154.024 143.051 153.555 142.196 152.932 141.46L132.227 115.143C136.796 109.883 139.845 103.477 141.045 96.6143C142.246 89.7513 141.553 82.6909 139.042 76.1922C136.53 69.6934 132.294 64.0022 126.79 59.7304C121.286 55.4587 114.722 52.768 107.803 51.9476ZM79.4891 87.1785C80.2395 80.8696 83.4653 75.1173 88.4569 71.1868C93.4485 67.2564 99.797 65.4698 106.106 66.2202C112.415 66.9705 118.167 70.1963 122.098 75.1879C126.028 80.1795 127.815 86.528 127.064 92.8369C126.314 99.1457 123.088 104.898 118.096 108.829C113.105 112.759 106.756 114.546 100.447 113.795C94.1386 113.045 88.3862 109.819 84.4558 104.827C80.5253 99.8359 78.7388 93.4873 79.4891 87.1785Z" fill="#EFC5DE"/>
<circle cx="103.399" cy="90.0777" r="24" transform="rotate(-8.16722 103.399 90.0777)" fill="#F6ECF3" fill-opacity="0.7"/>
</svg>

<svg width="166" height="166" fill="none" xmlns="http://www.w3.org/2000/svg"><circle cx="83" cy="83" r="83" fill="#fff"/><rect x="33.669" y="32.915" width="67.693" height="92.22" rx="3" transform="rotate(-9.735 33.669 32.915)" fill="#EFC5DE"/><rect x="47.595" y="44.461" width="44.148" height="3.924" rx="1.962" transform="rotate(-9.735 47.595 44.461)" fill="#DA6CA2"/><rect x="50.913" y="63.8" width="44.148" height="3.924" rx="1.962" transform="rotate(-9.735 50.913 63.8)" fill="#DA6CA2"/><rect x="55.89" y="92.808" width="44.148" height="3.924" rx="1.962" transform="rotate(-9.735 55.89 92.808)" fill="#DA6CA2"/><rect x="49.253" y="54.13" width="44.148" height="3.924" rx="1.962" transform="rotate(-9.735 49.253 54.13)" fill="#DA6CA2"/><rect x="54.23" y="83.138" width="44.148" height="3.924" rx="1.962" transform="rotate(-9.735 54.23 83.138)" fill="#DA6CA2"/><rect x="52.571" y="73.469" width="44.148" height="3.924" rx="1.962" transform="rotate(-9.735 52.571 73.469)" fill="#DA6CA2"/><rect x="57.548" y="102.477" width="44.148" height="3.924" rx="1.962" transform="rotate(-9.735 57.548 102.477)" fill="#DA6CA2"/><path d="M75.716 90.5c0 22.368 49.54 40.5 27.39 40.5S63 112.868 63 90.5 80.956 50 103.106 50c7.798 0 11.104 1.228 7.336 3.457-6.934 4.104-29.655 13.362-34.725 37.043Z" fill="#fff"/><path d="M107.803 51.948a38.327 38.327 0 1 0-4.099 76.388 38.32 38.32 0 0 0 17.217-4.29l20.725 26.3a7.183 7.183 0 0 0 7.686 2.691 7.184 7.184 0 0 0 5.264-6.212 7.188 7.188 0 0 0-1.664-5.365l-20.705-26.317a38.33 38.33 0 0 0-5.437-55.413 38.328 38.328 0 0 0-18.987-7.782Zm-28.314 35.23a23.956 23.956 0 1 1 47.576 5.66 23.956 23.956 0 0 1-47.576-5.66Z" fill="#EFC5DE"/><circle cx="103.399" cy="90.078" r="24" transform="rotate(-8.167 103.399 90.078)" fill="#F6ECF3" fill-opacity=".7"/></svg>
